static/lang-icons/vyxal3.svg

<svg xmlns="http://www.w3.org/2000/svg" width="426" height="426"><path fill-rule="evenodd" d="M113.486 92.895c-6.568 3.767-15.678 13.505-33.791 36.12-32.437 40.5-47.408 64.495-50.219 80.485-2.662 15.146-1.549 23.639 3.837 29.276 5.781 6.05 14.594 6.697 20.744 1.523 4.403-3.705 5.229-6.332 5.927-18.852.577-10.354.856-11.492 4.412-18 5.262-9.629 22.302-33.244 39.94-55.352 16.641-20.857 23.287-28.095 25.8-28.095 2.532 0 7.939-4.934 9.5-8.671 6.405-15.33-10.628-27.338-26.15-18.434M259.5 133.412c-4.382 1.947-7.21 5.469-8.616 10.727-4.439 16.609 19.075 26.025 27.802 11.133 4.716-8.046 2.039-17.15-6.252-21.257-4.676-2.318-8.659-2.503-12.934-.603m-121.656 16.982c-14.757 5.271-27.148 18.928-33.78 37.23-4.423 12.207-14.917 48.277-16.645 57.214-1.691 8.746-1.864 27.508-.311 33.677 3.745 14.871 22.655 16.65 29.77 2.801.665-1.295 1.122-7.644 1.122-15.59V252.32l6.579-22.91c7.38-25.698 11.022-35.784 14.99-41.51 5.618-8.107 13.446-9.969 23.072-5.487 5.939 2.766 25.717 20.599 32.696 29.482 7.362 9.371 14.222 24.311 20.484 44.613 4.167 13.509 13.025 31.338 18.083 36.396 15.624 15.624 57.568 3.439 83.891-24.369 6.206-6.556 9.191-10.887 14.898-21.617 8.522-16.019 9.843-19.755 11.159-31.542.553-4.953 2.208-12.352 3.678-16.441 4.23-11.772 5.472-16.065 5.448-18.844-.035-4.182-3.486-10.604-7.068-13.155-6.057-4.313-17.583-2.417-21.482 3.534-1.535 2.343-6.123 14.226-9.084 23.53-.788 2.475-2.098 9.196-2.913 14.937-1.325 9.34-2.082 11.589-7.206 21.406-6.408 12.278-12.738 19.894-21.459 25.816-7.824 5.313-19.726 10.892-24.646 11.552l-3.972.533-3.478-6.906c-1.913-3.798-4.94-11.616-6.728-17.372-6.575-21.172-14.858-38.75-23.939-50.801-6.284-8.34-27.366-28.93-35.655-34.823-2.569-1.827-8.183-4.676-12.477-6.332-7.131-2.749-8.826-3.006-19.589-2.966-7.049.026-13.251.568-15.438 1.35m233.519 48.655c-5.233 2.591-6.424 5.049-14.295 29.499-14.172 44.022-23.484 56.594-52.84 71.341-4.55 2.286-10.625 5.056-13.5 6.157-6.235 2.386-8.922 4.495-11.104 8.714-3.346 6.471-1.201 14.936 4.834 19.071 4.301 2.947 9.379 3.699 15.155 2.245 6.295-1.585 27.016-12.017 36.924-18.589 8.952-5.937 21.962-18.938 27.801-27.78 8.252-12.495 20.313-41.876 27.118-66.06 3.961-14.078 2.637-19.413-6.05-24.381-4.872-2.786-8.732-2.845-14.043-.217M164.81 258.793c-4.327.528-10.599 6.976-11.964 12.3-1.056 4.121-.947 5.066 1.06 9.212 2.869 5.928 7.547 8.903 14.156 9.002 5.608.085 8.982-1.869 12.777-7.399 3.199-4.662 2.738-13.594-.902-17.486-4.045-4.325-9.419-6.324-15.127-5.629"/></svg>

<svg xmlns="http://www.w3.org/2000/svg" width="426" height="426" viewBox="0 0 426 426" version="1.1">
	<path d="M 113.486 92.895 C 106.918 96.662, 97.808 106.400, 79.695 129.015 C 47.258 169.515, 32.287 193.510, 29.476 209.500 C 26.814 224.646, 27.927 233.139, 33.313 238.776 C 39.094 244.826, 47.907 245.473, 54.057 240.299 C 58.460 236.594, 59.286 233.967, 59.984 221.447 C 60.561 211.093, 60.840 209.955, 64.396 203.447 C 69.658 193.818, 86.698 170.203, 104.336 148.095 C 120.977 127.238, 127.623 120, 130.136 120 C 132.668 120, 138.075 115.066, 139.636 111.329 C 146.041 95.999, 129.008 83.991, 113.486 92.895 M 259.500 133.412 C 255.118 135.359, 252.290 138.881, 250.884 144.139 C 246.445 160.748, 269.959 170.164, 278.686 155.272 C 283.402 147.226, 280.725 138.122, 272.434 134.015 C 267.758 131.697, 263.775 131.512, 259.500 133.412 M 137.844 150.394 C 123.087 155.665, 110.696 169.322, 104.064 187.624 C 99.641 199.831, 89.147 235.901, 87.419 244.838 C 85.728 253.584, 85.555 272.346, 87.108 278.515 C 90.853 293.386, 109.763 295.165, 116.878 281.316 C 117.543 280.021, 118 273.672, 118 265.726 L 118 252.320 124.579 229.410 C 131.959 203.712, 135.601 193.626, 139.569 187.900 C 145.187 179.793, 153.015 177.931, 162.641 182.413 C 168.580 185.179, 188.358 203.012, 195.337 211.895 C 202.699 221.266, 209.559 236.206, 215.821 256.508 C 219.988 270.017, 228.846 287.846, 233.904 292.904 C 249.528 308.528, 291.472 296.343, 317.795 268.535 C 324.001 261.979, 326.986 257.648, 332.693 246.918 C 341.215 230.899, 342.536 227.163, 343.852 215.376 C 344.405 210.423, 346.060 203.024, 347.530 198.935 C 351.760 187.163, 353.002 182.870, 352.978 180.091 C 352.943 175.909, 349.492 169.487, 345.910 166.936 C 339.853 162.623, 328.327 164.519, 324.428 170.470 C 322.893 172.813, 318.305 184.696, 315.344 194 C 314.556 196.475, 313.246 203.196, 312.431 208.937 C 311.106 218.277, 310.349 220.526, 305.225 230.343 C 298.817 242.621, 292.487 250.237, 283.766 256.159 C 275.942 261.472, 264.040 267.051, 259.120 267.711 L 255.148 268.244 251.670 261.338 C 249.757 257.540, 246.730 249.722, 244.942 243.966 C 238.367 222.794, 230.084 205.216, 221.003 193.165 C 214.719 184.825, 193.637 164.235, 185.348 158.342 C 182.779 156.515, 177.165 153.666, 172.871 152.010 C 165.740 149.261, 164.045 149.004, 153.282 149.044 C 146.233 149.070, 140.031 149.612, 137.844 150.394 M 371.363 199.049 C 366.130 201.640, 364.939 204.098, 357.068 228.548 C 342.896 272.570, 333.584 285.142, 304.228 299.889 C 299.678 302.175, 293.603 304.945, 290.728 306.046 C 284.493 308.432, 281.806 310.541, 279.624 314.760 C 276.278 321.231, 278.423 329.696, 284.458 333.831 C 288.759 336.778, 293.837 337.530, 299.613 336.076 C 305.908 334.491, 326.629 324.059, 336.537 317.487 C 345.489 311.550, 358.499 298.549, 364.338 289.707 C 372.590 277.212, 384.651 247.831, 391.456 223.647 C 395.417 209.569, 394.093 204.234, 385.406 199.266 C 380.534 196.480, 376.674 196.421, 371.363 199.049 M 164.810 258.793 C 160.483 259.321, 154.211 265.769, 152.846 271.093 C 151.790 275.214, 151.899 276.159, 153.906 280.305 C 156.775 286.233, 161.453 289.208, 168.062 289.307 C 173.670 289.392, 177.044 287.438, 180.839 281.908 C 184.038 277.246, 183.577 268.314, 179.937 264.422 C 175.892 260.097, 170.518 258.098, 164.810 258.793" stroke="none" fill="#000000" fill-rule="evenodd"/>
</svg>
